X: 1259
T: Kirpiği Oyalı
C: Sadettin Kaynak
O: Turkey
F: http://compmusic.upf.edu/node/140
N: karcigar--sarki--duyek--kirpigi_oyali--sadettin_kaynak
N: makam= karcigar
N: form= sarki
N: usul= duyek = 8/4
M: 8/4
L: 1/16
K: C _2/4B _3/4e ^3/4f 
Q: 1/4=123
%%MIDI tuningsystem comma53
d4 _7/8e2 d2 c2 _1/4B2 c2 d2  | _7/8e2 ^f2 d2 c2 _1/4B2 c2 A4  | \
w:   |   | 
d2 _7/8e2 d2 c2 _1/4B2 A2 B2 c2  | 
w:   | 
d16  | d4 _7/8e2 d2 c2 _1/4B2 c2 d2  | \
w:   |   | 
_7/8e2 ^f2 d2 c2 _1/4B2 c2 A4  | G2 A2 _1/4B2 c2 d2 =e2 ^f2 g2  | 
w:   |   | 
a16  | a3g a2 _b2 z8  | _b3a g4 z8  | g3^f g2 a2 z8  | \
w:   |   |   |   | 
a3g ^f4 z8  | ^f3_7/8e f2 g2 z8  | 
w:   |   | 
g3^f _7/8e4 z8  | d2 _7/8e2 d2 g2 ^f2 e2 d2 c2  | \
w:   |   | 
d4 g4 ^f4 a4  | g3^f _7/8e2 d2 c2 _1/4B2 B2 A2  | 
w:   |   | 
A4 G4 A4 z4  | z2 _7/8e4 e2 e4 e4  | \
w:   |  Kir pi ği o  | 
_7/8e2 d2 d2 c2 d2 e2 c4  | z2 G2 A2 _1/4B2 c2 d2 _7/8e2 c2  | 
w:  ya *  *  *  lı *  kız  |   | 
d4 z2 c2 d2 _1/4B2 c4  | z2 _7/8e4 e2 e4 e4  | \
w:   |  ba kı şı rü  | 
_7/8e2 d2 d2 c2 d2 e2 c4  | z2 G2 A2 _1/4B2 c2 d2 _7/8e2 c2  | 
w:  ya *  *  *  lı *  kız  |   | 
d4 z2 g2 ^f2 g2 a4  | z4 g4 ^f4 g4  | a16  | \
w:   |  Gön lüm ı  |  lık  | 
z4 _7/8e8 e2 d2  | d4 =e2 d2 c2 _1/4B2 A2 G2  | 
w:  süt gi  |  bi  | 
z4 c4 _1/4B4 A4  | G4 d4 c2 _1/4B2 B2 A2  | A16  | \
w:  sev *  gi  |  ne ma ya *  lı  |  kız  | 
z4 z4 z4 z4  | G4 c4 _1/4B4 d4  | z2 _1/4B2 A2 G2 A4 z4  | 
w:  |  Ba şak lar dan  |  in *  ce sin  | 
G4 c4 _1/4B4 d4  | z2 _1/4B2 A2 G2 A4 z4  | \
w:  çi çek len miş  |  yon *  ca sın  | 
g4 g4 g4 g8 g4 a4 _b6 a2 g6 ^f2 _7/8e6 d2 c4 z4 z4  | 
w:  Ben se nin çün ya na rım  | 
g4 g4 g4 g6 ^f2 =e4 f4 g16 g16 |
w:  sen ba na se *  rin ce sin  | 


